source/svgs/bowtie/uE984-save-as.svg

<svg xmlns="http://www.w3.org/2000/svg" viewBox="0 0 448 448" enable-background="new 0 0 448 448"><path d="M192 384h64v64h-64v-64zm-105.84-137.84l-.598.598-85.562 20.625 23.734-82.969.34-.34 62.086 62.086zm160-160l11.652-11.652c8.297-8.281 12.859-19.313 12.859-31.031s-4.563-22.75-12.844-31.031c-16.594-16.594-45.516-16.594-62.078 0l-11.654 11.65 62.065 62.064zm-94.068-30.068l-96.014 95.986 62.082 62.082 96-96-62.068-62.068zm167.908 7.908l-32 32h96v96h-192l-128 120v88l48 48h48v-128h192v128h96v-384h-128z"/></svg>

<svg xmlns="http://www.w3.org/2000/svg" viewBox="0 0 448 448"><path d="M192 384h64v64h-64v-64zM86.16 246.16l-.598.598L0 267.383l23.734-82.969.34-.34L86.16 246.16zm160-160l11.652-11.652c8.297-8.281 12.859-19.313 12.859-31.031s-4.563-22.75-12.844-31.031c-16.594-16.594-45.516-16.594-62.078 0l-11.654 11.65L246.16 86.16zm-94.068-30.068l-96.014 95.986 62.082 62.082 96-96-62.068-62.068zM320 64l-32 32h96v96H192L64 312v88l48 48h48V320h192v128h96V64H320z"/></svg>
